icons/svg/database-minus.svg

﻿<?xml version="1.0" encoding="utf-8"?>
<!DOCTYPE svg PUBLIC "-//W3C//DTD SVG 1.1//EN" "http://www.w3.org/Graphics/SVG/1.1/DTD/svg11.dtd">
<svg xmlns="http://www.w3.org/2000/svg" xmlns:xlink="http://www.w3.org/1999/xlink" version="1.1" baseProfile="full" width="24" height="24" viewBox="0 0 24.00 24.00" enable-background="new 0 0 24.00 24.00" xml:space="preserve">
	<path fill="#000000" fill-opacity="1" stroke-width="0.2" stroke-linejoin="miter" d="M 15,17L 23,17L 23,19L 15,19L 15,17 Z M 9,3C 13.4183,3 17,4.7909 17,7C 17,9.2091 13.4183,11 9,11C 4.58172,11 1,9.2091 1,7C 1,4.7909 4.58172,3 9,3 Z M 1,9C 1,11.2091 4.58172,13 9,13C 13.4183,13 17,11.2091 17,9L 17,12C 17,13.1947 15.9525,14.2671 14.2916,15L 13,15L 13,15.4649C 11.8233,15.8052 10.4572,16 9,16C 4.58172,16 1,14.2091 1,12L 1,9 Z M 1,14C 1,16.2091 4.58172,18 9,18C 10.4572,18 11.8233,17.8052 13,17.4649L 13,20.4649C 11.8233,20.8052 10.4572,21 9,21C 4.58172,21 1,19.2091 1,17L 1,14 Z M 17,14L 17,15L 16.748,15C 16.9125,14.6804 17,14.3453 17,14 Z "/>
</svg>

<svg xmlns="http://www.w3.org/2000/svg" version="1.1" baseProfile="full" width="24" height="24" viewBox="0 0 24.00 24.00" xml:space="preserve"><path fill="#000" fill-opacity="1" stroke-width=".2" stroke-linejoin="miter" d="M15 17h8v2h-8v-2zM9 3c4.418 0 8 1.79 8 4s-3.582 4-8 4-8-1.79-8-4 3.582-4 8-4zM1 9c0 2.21 3.582 4 8 4s8-1.79 8-4v3c0 1.195-1.047 2.267-2.708 3H13v.465c-1.177.34-2.543.535-4 .535-4.418 0-8-1.79-8-4V9zm0 5c0 2.21 3.582 4 8 4 1.457 0 2.823-.195 4-.535v3c-1.177.34-2.543.535-4 .535-4.418 0-8-1.79-8-4v-3zm16 0v1h-.252c.165-.32.252-.655.252-1z"/></svg>
